X: 5
T: I Have a Bonnet Trimmed in Blue
M: 2/4
L: 1/8
R: polka
K: D Major
|: F/E/ |\ 
D>E FB | AD F2 | AB/A/ GE | ED F>E |
DD/E/ FB | AD FD | AB/A/ GE | ED D :| 
|: c/B/ | 
AB/c/ dc/B/ | AD FD | AB/A/ GE | ED F/G/F/E/ |
A>c dB | AD F2 | A2 GE | ED D :|
